static/img/kroki/63c8853904d455c5f2bc5cd637ac54d9.svg

<?xml version="1.0" encoding="us-ascii" standalone="no"?><svg xmlns="http://www.w3.org/2000/svg" xmlns:xlink="http://www.w3.org/1999/xlink" contentStyleType="text/css" height="1138px" preserveAspectRatio="none" style="width:422px;height:1138px;" version="1.1" viewBox="0 0 422 1138" width="422px" zoomAndPan="magnify"><defs/><g><!--class gcp_deprecation_status--><g id="elem_gcp_deprecation_status"><rect codeLine="22" fill="#3D176E" height="179.2734" id="gcp_deprecation_status" rx="2.5" ry="2.5" style="stroke:#000D19;stroke-width:0.5;" width="237" x="107.5" y="952.01"/><ellipse cx="122.5" cy="971.9045" fill="#ADD1B2" rx="11" ry="11" style="stroke:#181818;stroke-width:1.0;"/><path d="M125.4688,977.5452 Q124.8906,977.842 124.25,977.9827 Q123.6094,978.1389 122.9063,978.1389 Q120.4063,978.1389 119.0781,976.4983 Q117.7656,974.842 117.7656,971.717 Q117.7656,968.592 119.0781,966.9358 Q120.4063,965.2795 122.9063,965.2795 Q123.6094,965.2795 124.25,965.4358 Q124.9063,965.592 125.4688,965.8889 L125.4688,968.6077 Q124.8438,968.0295 124.25,967.7639 Q123.6563,967.4827 123.0313,967.4827 Q121.6875,967.4827 121,968.5608 Q120.3125,969.6233 120.3125,971.717 Q120.3125,973.8108 121,974.8889 Q121.6875,975.9514 123.0313,975.9514 Q123.6563,975.9514 124.25,975.6858 Q124.8438,975.4045 125.4688,974.8264 L125.4688,977.5452 Z " fill="#000000"/><text fill="#D9B8FF" font-family="Helvetica" font-size="17" lengthAdjust="spacing" textLength="195" x="141.5" y="977.7898">gcp_deprecation_status</text><line style="stroke:#000D19;stroke-width:0.5;" x1="108.5" x2="343.5" y1="991.7991" y2="991.7991"/><text fill="#D9B8FF" font-family="sans-serif" font-size="14" font-weight="bold" lengthAdjust="spacing" textLength="60" x="118.5" y="1013.7942">deleted</text><text fill="#D9B8FF" font-family="sans-serif" font-size="14" lengthAdjust="spacing" textLength="48" x="178.5" y="1013.7942">: string</text><text fill="#D9B8FF" font-family="sans-serif" font-size="14" font-weight="bold" lengthAdjust="spacing" textLength="91" x="118.5" y="1040.0911">deprecated</text><text fill="#D9B8FF" font-family="sans-serif" font-size="14" lengthAdjust="spacing" textLength="48" x="209.5" y="1040.0911">: string</text><text fill="#D9B8FF" font-family="sans-serif" font-size="14" font-weight="bold" lengthAdjust="spacing" textLength="69" x="118.5" y="1066.3879">obsolete</text><text fill="#D9B8FF" font-family="sans-serif" font-size="14" lengthAdjust="spacing" textLength="48" x="187.5" y="1066.3879">: string</text><text fill="#D9B8FF" font-family="sans-serif" font-size="14" font-weight="bold" lengthAdjust="spacing" textLength="99" x="118.5" y="1092.6848">replacement</text><text fill="#D9B8FF" font-family="sans-serif" font-size="14" lengthAdjust="spacing" textLength="48" x="217.5" y="1092.6848">: string</text><text fill="#D9B8FF" font-family="sans-serif" font-size="14" font-weight="bold" lengthAdjust="spacing" textLength="40" x="118.5" y="1118.9817">state</text><text fill="#D9B8FF" font-family="sans-serif" font-size="14" lengthAdjust="spacing" textLength="48" x="158.5" y="1118.9817">: string</text></g><!--class gcp_resource--><g id="elem_gcp_resource"><rect codeLine="29" fill="#3D176E" height="152.9766" id="gcp_resource" rx="2.5" ry="2.5" style="stroke:#000D19;stroke-width:0.5;" width="348" x="7" y="438.76"/><ellipse cx="117.75" cy="458.6545" fill="#ADD1B2" rx="11" ry="11" style="stroke:#181818;stroke-width:1.0;"/><path d="M120.7188,464.2952 Q120.1406,464.592 119.5,464.7327 Q118.8594,464.8889 118.1563,464.8889 Q115.6563,464.8889 114.3281,463.2483 Q113.0156,461.592 113.0156,458.467 Q113.0156,455.342 114.3281,453.6858 Q115.6563,452.0295 118.1563,452.0295 Q118.8594,452.0295 119.5,452.1858 Q120.1563,452.342 120.7188,452.6389 L120.7188,455.3577 Q120.0938,454.7795 119.5,454.5139 Q118.9063,454.2327 118.2813,454.2327 Q116.9375,454.2327 116.25,455.3108 Q115.5625,456.3733 115.5625,458.467 Q115.5625,460.5608 116.25,461.6389 Q116.9375,462.7014 118.2813,462.7014 Q118.9063,462.7014 119.5,462.4358 Q120.0938,462.1545 120.7188,461.5764 L120.7188,464.2952 Z " fill="#000000"/><text fill="#D9B8FF" font-family="Helvetica" font-size="17" lengthAdjust="spacing" textLength="108" x="143.25" y="464.5398">gcp_resource</text><line style="stroke:#000D19;stroke-width:0.5;" x1="8" x2="354" y1="478.5491" y2="478.5491"/><text fill="#D9B8FF" font-family="sans-serif" font-size="14" font-weight="bold" lengthAdjust="spacing" textLength="151" x="18" y="500.5442">deprecation_status</text><text fill="#D9B8FF" font-family="sans-serif" font-size="14" lengthAdjust="spacing" textLength="175" x="169" y="500.5442">: gcp_deprecation_status</text><text fill="#D9B8FF" font-family="sans-serif" font-size="14" font-weight="bold" lengthAdjust="spacing" textLength="89" x="18" y="526.8411">description</text><text fill="#D9B8FF" font-family="sans-serif" font-size="14" lengthAdjust="spacing" textLength="48" x="107" y="526.8411">: string</text><text fill="#D9B8FF" font-family="sans-serif" font-size="14" font-weight="bold" lengthAdjust="spacing" textLength="128" x="18" y="553.1379">label_fingerprint</text><text fill="#D9B8FF" font-family="sans-serif" font-size="14" lengthAdjust="spacing" textLength="48" x="146" y="553.1379">: string</text><text fill="#D9B8FF" font-family="sans-serif" font-size="14" font-weight="bold" lengthAdjust="spacing" textLength="27" x="18" y="579.4348">link</text><text fill="#D9B8FF" font-family="sans-serif" font-size="14" lengthAdjust="spacing" textLength="48" x="45" y="579.4348">: string</text></g><!--class gcp_target_ssl_proxy--><g id="elem_gcp_target_ssl_proxy"><rect codeLine="35" fill="#3D176E" height="179.2734" id="gcp_target_ssl_proxy" rx="2.5" ry="2.5" style="stroke:#000D19;stroke-width:0.5;" width="216" x="199" y="712.73"/><ellipse cx="214" cy="732.6245" fill="#ADD1B2" rx="11" ry="11" style="stroke:#181818;stroke-width:1.0;"/><path d="M216.9688,738.2652 Q216.3906,738.562 215.75,738.7027 Q215.1094,738.8589 214.4063,738.8589 Q211.9063,738.8589 210.5781,737.2183 Q209.2656,735.562 209.2656,732.437 Q209.2656,729.312 210.5781,727.6558 Q211.9063,725.9995 214.4063,725.9995 Q215.1094,725.9995 215.75,726.1558 Q216.4063,726.312 216.9688,726.6089 L216.9688,729.3277 Q216.3438,728.7495 215.75,728.4839 Q215.1563,728.2027 214.5313,728.2027 Q213.1875,728.2027 212.5,729.2808 Q211.8125,730.3433 211.8125,732.437 Q211.8125,734.5308 212.5,735.6089 Q213.1875,736.6714 214.5313,736.6714 Q215.1563,736.6714 215.75,736.4058 Q216.3438,736.1245 216.9688,735.5464 L216.9688,738.2652 Z " fill="#000000"/><text fill="#D9B8FF" font-family="Helvetica" font-size="17" lengthAdjust="spacing" textLength="174" x="233" y="738.5098">gcp_target_ssl_proxy</text><line style="stroke:#000D19;stroke-width:0.5;" x1="200" x2="414" y1="752.5191" y2="752.5191"/><text fill="#D9B8FF" font-family="sans-serif" font-size="14" font-weight="bold" lengthAdjust="spacing" textLength="120" x="210" y="774.5142">certificate_map</text><text fill="#D9B8FF" font-family="sans-serif" font-size="14" lengthAdjust="spacing" textLength="48" x="330" y="774.5142">: string</text><text fill="#D9B8FF" font-family="sans-serif" font-size="14" font-weight="bold" lengthAdjust="spacing" textLength="108" x="210" y="800.8111">proxy_header</text><text fill="#D9B8FF" font-family="sans-serif" font-size="14" lengthAdjust="spacing" textLength="48" x="318" y="800.8111">: string</text><text fill="#D9B8FF" font-family="sans-serif" font-size="14" font-weight="bold" lengthAdjust="spacing" textLength="58" x="210" y="827.1079">service</text><text fill="#D9B8FF" font-family="sans-serif" font-size="14" lengthAdjust="spacing" textLength="48" x="268" y="827.1079">: string</text><text fill="#D9B8FF" font-family="sans-serif" font-size="14" font-weight="bold" lengthAdjust="spacing" textLength="118" x="210" y="853.4048">ssl_certificates</text><text fill="#D9B8FF" font-family="sans-serif" font-size="14" lengthAdjust="spacing" textLength="58" x="328" y="853.4048">: string[]</text><text fill="#D9B8FF" font-family="sans-serif" font-size="14" font-weight="bold" lengthAdjust="spacing" textLength="75" x="210" y="879.7017">ssl_policy</text><text fill="#D9B8FF" font-family="sans-serif" font-size="14" lengthAdjust="spacing" textLength="48" x="285" y="879.7017">: string</text></g><!--class resource--><g id="elem_resource"><rect codeLine="42" fill="#3D176E" height="310.7578" id="resource" rx="2.5" ry="2.5" style="stroke:#000D19;stroke-width:0.5;" width="227" x="67.5" y="7"/><ellipse cx="136.25" cy="26.8945" fill="#ADD1B2" rx="11" ry="11" style="stroke:#181818;stroke-width:1.0;"/><path d="M139.2188,32.5352 Q138.6406,32.832 138,32.9727 Q137.3594,33.1289 136.6563,33.1289 Q134.1563,33.1289 132.8281,31.4883 Q131.5156,29.832 131.5156,26.707 Q131.5156,23.582 132.8281,21.9258 Q134.1563,20.2695 136.6563,20.2695 Q137.3594,20.2695 138,20.4258 Q138.6563,20.582 139.2188,20.8789 L139.2188,23.5977 Q138.5938,23.0195 138,22.7539 Q137.4063,22.4727 136.7813,22.4727 Q135.4375,22.4727 134.75,23.5508 Q134.0625,24.6133 134.0625,26.707 Q134.0625,28.8008 134.75,29.8789 Q135.4375,30.9414 136.7813,30.9414 Q137.4063,30.9414 138,30.6758 Q138.5938,30.3945 139.2188,29.8164 L139.2188,32.5352 Z " fill="#000000"/><text fill="#D9B8FF" font-family="Helvetica" font-size="17" lengthAdjust="spacing" textLength="71" x="161.75" y="32.7798">resource</text><line style="stroke:#000D19;stroke-width:0.5;" x1="68.5" x2="293.5" y1="46.7891" y2="46.7891"/><text fill="#D9B8FF" font-family="sans-serif" font-size="14" font-weight="bold" lengthAdjust="spacing" textLength="29" x="78.5" y="68.7842">age</text><text fill="#D9B8FF" font-family="sans-serif" font-size="14" lengthAdjust="spacing" textLength="66" x="107.5" y="68.7842">: duration</text><text fill="#D9B8FF" font-family="sans-serif" font-size="14" font-weight="bold" lengthAdjust="spacing" textLength="43" x="78.5" y="95.0811">atime</text><text fill="#D9B8FF" font-family="sans-serif" font-size="14" lengthAdjust="spacing" textLength="70" x="121.5" y="95.0811">: datetime</text><text fill="#D9B8FF" font-family="sans-serif" font-size="14" font-weight="bold" lengthAdjust="spacing" textLength="43" x="78.5" y="121.3779">ctime</text><text fill="#D9B8FF" font-family="sans-serif" font-size="14" lengthAdjust="spacing" textLength="70" x="121.5" y="121.3779">: datetime</text><text fill="#D9B8FF" font-family="sans-serif" font-size="14" font-weight="bold" lengthAdjust="spacing" textLength="14" x="78.5" y="147.6748">id</text><text fill="#D9B8FF" font-family="sans-serif" font-size="14" lengthAdjust="spacing" textLength="48" x="92.5" y="147.6748">: string</text><text fill="#D9B8FF" font-family="sans-serif" font-size="14" font-weight="bold" lengthAdjust="spacing" textLength="33" x="78.5" y="173.9717">kind</text><text fill="#D9B8FF" font-family="sans-serif" font-size="14" lengthAdjust="spacing" textLength="48" x="111.5" y="173.9717">: string</text><text fill="#D9B8FF" font-family="sans-serif" font-size="14" font-weight="bold" lengthAdjust="spacing" textLength="90" x="78.5" y="200.2686">last_access</text><text fill="#D9B8FF" font-family="sans-serif" font-size="14" lengthAdjust="spacing" textLength="66" x="168.5" y="200.2686">: duration</text><text fill="#D9B8FF" font-family="sans-serif" font-size="14" font-weight="bold" lengthAdjust="spacing" textLength="90" x="78.5" y="226.5654">last_update</text><text fill="#D9B8FF" font-family="sans-serif" font-size="14" lengthAdjust="spacing" textLength="66" x="168.5" y="226.5654">: duration</text><text fill="#D9B8FF" font-family="sans-serif" font-size="14" font-weight="bold" lengthAdjust="spacing" textLength="48" x="78.5" y="252.8623">mtime</text><text fill="#D9B8FF" font-family="sans-serif" font-size="14" lengthAdjust="spacing" textLength="70" x="126.5" y="252.8623">: datetime</text><text fill="#D9B8FF" font-family="sans-serif" font-size="14" font-weight="bold" lengthAdjust="spacing" textLength="43" x="78.5" y="279.1592">name</text><text fill="#D9B8FF" font-family="sans-serif" font-size="14" lengthAdjust="spacing" textLength="48" x="121.5" y="279.1592">: string</text><text fill="#D9B8FF" font-family="sans-serif" font-size="14" font-weight="bold" lengthAdjust="spacing" textLength="34" x="78.5" y="305.4561">tags</text><text fill="#D9B8FF" font-family="sans-serif" font-size="14" lengthAdjust="spacing" textLength="171" x="112.5" y="305.4561">: dictionary[string, string]</text></g><!--link gcp_resource to gcp_deprecation_status--><g id="link_gcp_resource_gcp_deprecation_status"><path codeLine="54" d="M174.92,591.92 C170.27,668.14 166.92,788.89 182,892.01 C184.59,909.74 188.82,928.31 193.65,946.08 " fill="none" id="gcp_resource-to-gcp_deprecation_status" style="stroke:#FFAF37;stroke-width:2.0;"/><polygon fill="#FFAF37" points="195.16,950.57,196.6023,940.8273,193.8203,945.7528,188.8948,942.9708,195.16,950.57" style="stroke:#FFAF37;stroke-width:2.0;"/></g><!--reverse link resource to gcp_resource--><g id="link_resource_gcp_resource"><path codeLine="55" d="M181,338.65 C181,373.73 181,408.82 181,438.31 " fill="none" id="resource-backto-gcp_resource" style="stroke:#FFAF37;stroke-width:2.0;"/><polygon fill="none" points="174,339.04,181,319.04,188,339.04,174,339.04" style="stroke:#FFAF37;stroke-width:2.0;"/></g><!--link gcp_target_ssl_proxy to gcp_deprecation_status--><g id="link_gcp_target_ssl_proxy_gcp_deprecation_status"><path codeLine="56" d="M276.61,892.4 C270.63,909.91 264.33,928.35 258.29,946.05 " fill="none" id="gcp_target_ssl_proxy-to-gcp_deprecation_status" style="stroke:#FFAF37;stroke-width:2.0;"/><polygon fill="#FFAF37" points="256.43,950.51,263.1427,943.3031,258.0582,945.7825,255.5788,940.698,256.43,950.51" style="stroke:#FFAF37;stroke-width:2.0;"/></g><!--reverse link gcp_resource to gcp_target_ssl_proxy--><g id="link_gcp_resource_gcp_target_ssl_proxy"><path codeLine="57" d="M222.74,610.7 C237.23,643.49 253.42,680.12 267.7,712.44 " fill="none" id="gcp_resource-backto-gcp_target_ssl_proxy" style="stroke:#FFAF37;stroke-width:2.0;"/><polygon fill="none" points="216.12,614.03,214.43,592.9,228.92,608.37,216.12,614.03" style="stroke:#FFAF37;stroke-width:2.0;"/></g><!--SRC=[XPJVQzim4CVVyrSO-XOMI5QsD6CCki3ONifOzrQAkKXdHqIMnEdSBllnlq-oqrPodFJD_jx7t_lUINYh91ROEDuN3JOR93_nEsKS43J5DP5zN5jjgRYeAgWkbyFY5sluLU066Yo-edv0LWA6nC-j4Zk3tXTlaz9d4BkQR6jaRyy4neSI6awejGRlhvb9RLh698nSRQwgQaWEJIykvMBv7eymInBfWCpdSxbO3P5NMvsT-vcuLR-nMAHBkx6CHp6FMdJKsPIHI48U3VfKFvdnEqYfJ5syIxGVVIOoI9b-kmLf7oDTWVPf6yz8Q7dlS7qq5QwkPBKSXR-TWaNSN54BLqfqX09OMLDw1cvzyMSodKhKo2Ydqm_1ZaAaJklHWMmttaOu4mcT1e5Dk6UP7bkavBya2g6tBGay11ZcYb-D9-vmBqYvA6RzD6nGbrLuGN91ozDePNOdmZ1GZLnwhqj7zjU-2oMGM5Kgxg1im6LU7LLk4S9joaT6Ub0YNq-qJSpyI_7k_b1sLYkn7qcNhGdgpbYsr2qaAgoQNWl6yJdc7j5KVehXziZ1vZoN84JuemmwT9NMoSD99fLcf8-19f-TeUuTbOYV0Utl-jgR0tCVHitkmspswTJ9FpCV_yvci-mQJKQFyOnNrlF5RsZn7m00]--></g></svg>

<svg xmlns="http://www.w3.org/2000/svg" width="422" height="1138" preserveAspectRatio="none" style="width:422px;height:1138px"><rect width="237" height="179.273" x="107.5" y="952.01" fill="#3D176E" rx="2.5" ry="2.5" style="stroke:#000d19;stroke-width:.5"/><circle cx="122.5" cy="971.904" r="11" fill="#ADD1B2" style="stroke:#181818;stroke-width:1"/><path d="M125.469 977.545q-.578.297-1.219.438-.64.156-1.344.156-2.5 0-3.828-1.64-1.312-1.657-1.312-4.782t1.312-4.781q1.328-1.657 3.828-1.657.703 0 1.344.157.656.156 1.219.453v2.719q-.625-.578-1.219-.844-.594-.281-1.219-.281-1.344 0-2.031 1.078-.688 1.062-.688 3.156 0 2.094.688 3.172.688 1.062 2.031 1.062.625 0 1.219-.265.594-.282 1.219-.86v2.72Z"/><text x="141.5" y="977.79" fill="#D9B8FF" font-family="Helvetica" font-size="17" textLength="195">gcp_deprecation_status</text><path d="M108.5 991.799h235" style="stroke:#000d19;stroke-width:.5"/><text x="118.5" y="1013.794" fill="#D9B8FF" font-family="sans-serif" font-size="14" font-weight="bold" textLength="60">deleted</text><text x="178.5" y="1013.794" fill="#D9B8FF" font-family="sans-serif" font-size="14" textLength="48">: string</text><text x="118.5" y="1040.091" fill="#D9B8FF" font-family="sans-serif" font-size="14" font-weight="bold" textLength="91">deprecated</text><text x="209.5" y="1040.091" fill="#D9B8FF" font-family="sans-serif" font-size="14" textLength="48">: string</text><text x="118.5" y="1066.388" fill="#D9B8FF" font-family="sans-serif" font-size="14" font-weight="bold" textLength="69">obsolete</text><text x="187.5" y="1066.388" fill="#D9B8FF" font-family="sans-serif" font-size="14" textLength="48">: string</text><text x="118.5" y="1092.685" fill="#D9B8FF" font-family="sans-serif" font-size="14" font-weight="bold" textLength="99">replacement</text><text x="217.5" y="1092.685" fill="#D9B8FF" font-family="sans-serif" font-size="14" textLength="48">: string</text><text x="118.5" y="1118.982" fill="#D9B8FF" font-family="sans-serif" font-size="14" font-weight="bold" textLength="40">state</text><text x="158.5" y="1118.982" fill="#D9B8FF" font-family="sans-serif" font-size="14" textLength="48">: string</text><rect width="348" height="152.977" x="7" y="438.76" fill="#3D176E" rx="2.5" ry="2.5" style="stroke:#000d19;stroke-width:.5"/><circle cx="117.75" cy="458.654" r="11" fill="#ADD1B2" style="stroke:#181818;stroke-width:1"/><path d="M120.719 464.295q-.578.297-1.219.438-.64.156-1.344.156-2.5 0-3.828-1.64-1.312-1.657-1.312-4.782t1.312-4.781q1.328-1.656 3.828-1.656.703 0 1.344.156.656.156 1.219.453v2.719q-.625-.579-1.219-.844-.594-.281-1.219-.281-1.344 0-2.031 1.078-.688 1.062-.688 3.156 0 2.094.688 3.172.688 1.062 2.031 1.062.625 0 1.219-.265.594-.281 1.219-.86v2.72Z"/><text x="143.25" y="464.54" fill="#D9B8FF" font-family="Helvetica" font-size="17" textLength="108">gcp_resource</text><path d="M8 478.549h346" style="stroke:#000d19;stroke-width:.5"/><text x="18" y="500.544" fill="#D9B8FF" font-family="sans-serif" font-size="14" font-weight="bold" textLength="151">deprecation_status</text><text x="169" y="500.544" fill="#D9B8FF" font-family="sans-serif" font-size="14" textLength="175">: gcp_deprecation_status</text><text x="18" y="526.841" fill="#D9B8FF" font-family="sans-serif" font-size="14" font-weight="bold" textLength="89">description</text><text x="107" y="526.841" fill="#D9B8FF" font-family="sans-serif" font-size="14" textLength="48">: string</text><text x="18" y="553.138" fill="#D9B8FF" font-family="sans-serif" font-size="14" font-weight="bold" textLength="128">label_fingerprint</text><text x="146" y="553.138" fill="#D9B8FF" font-family="sans-serif" font-size="14" textLength="48">: string</text><text x="18" y="579.435" fill="#D9B8FF" font-family="sans-serif" font-size="14" font-weight="bold" textLength="27">link</text><text x="45" y="579.435" fill="#D9B8FF" font-family="sans-serif" font-size="14" textLength="48">: string</text><rect width="216" height="179.273" x="199" y="712.73" fill="#3D176E" rx="2.5" ry="2.5" style="stroke:#000d19;stroke-width:.5"/><circle cx="214" cy="732.625" r="11" fill="#ADD1B2" style="stroke:#181818;stroke-width:1"/><path d="M216.969 738.265q-.578.297-1.219.438-.64.156-1.344.156-2.5 0-3.828-1.64-1.312-1.657-1.312-4.782t1.312-4.781q1.328-1.656 3.828-1.656.703 0 1.344.156.656.156 1.219.453v2.719q-.625-.578-1.219-.844-.594-.281-1.219-.281-1.344 0-2.031 1.078-.688 1.062-.688 3.156 0 2.094.688 3.172.688 1.062 2.031 1.062.625 0 1.219-.265.594-.281 1.219-.86v2.72Z"/><text x="233" y="738.51" fill="#D9B8FF" font-family="Helvetica" font-size="17" textLength="174">gcp_target_ssl_proxy</text><path d="M200 752.519h214" style="stroke:#000d19;stroke-width:.5"/><text x="210" y="774.514" fill="#D9B8FF" font-family="sans-serif" font-size="14" font-weight="bold" textLength="120">certificate_map</text><text x="330" y="774.514" fill="#D9B8FF" font-family="sans-serif" font-size="14" textLength="48">: string</text><text x="210" y="800.811" fill="#D9B8FF" font-family="sans-serif" font-size="14" font-weight="bold" textLength="108">proxy_header</text><text x="318" y="800.811" fill="#D9B8FF" font-family="sans-serif" font-size="14" textLength="48">: string</text><text x="210" y="827.108" fill="#D9B8FF" font-family="sans-serif" font-size="14" font-weight="bold" textLength="58">service</text><text x="268" y="827.108" fill="#D9B8FF" font-family="sans-serif" font-size="14" textLength="48">: string</text><text x="210" y="853.405" fill="#D9B8FF" font-family="sans-serif" font-size="14" font-weight="bold" textLength="118">ssl_certificates</text><text x="328" y="853.405" fill="#D9B8FF" font-family="sans-serif" font-size="14" textLength="58">: string[]</text><text x="210" y="879.702" fill="#D9B8FF" font-family="sans-serif" font-size="14" font-weight="bold" textLength="75">ssl_policy</text><text x="285" y="879.702" fill="#D9B8FF" font-family="sans-serif" font-size="14" textLength="48">: string</text><rect width="227" height="310.758" x="67.5" y="7" fill="#3D176E" rx="2.5" ry="2.5" style="stroke:#000d19;stroke-width:.5"/><circle cx="136.25" cy="26.895" r="11" fill="#ADD1B2" style="stroke:#181818;stroke-width:1"/><path d="M139.219 32.535q-.578.297-1.219.438-.64.156-1.344.156-2.5 0-3.828-1.64-1.312-1.657-1.312-4.782t1.312-4.781q1.328-1.656 3.828-1.656.703 0 1.344.156.656.156 1.219.453v2.719q-.625-.578-1.219-.844-.594-.281-1.219-.281-1.344 0-2.031 1.078-.688 1.062-.688 3.156 0 2.094.688 3.172.688 1.062 2.031 1.062.625 0 1.219-.265.594-.281 1.219-.86v2.72Z"/><text x="161.75" y="32.78" fill="#D9B8FF" font-family="Helvetica" font-size="17" textLength="71">resource</text><path d="M68.5 46.789h225" style="stroke:#000d19;stroke-width:.5"/><text x="78.5" y="68.784" fill="#D9B8FF" font-family="sans-serif" font-size="14" font-weight="bold" textLength="29">age</text><text x="107.5" y="68.784" fill="#D9B8FF" font-family="sans-serif" font-size="14" textLength="66">: duration</text><text x="78.5" y="95.081" fill="#D9B8FF" font-family="sans-serif" font-size="14" font-weight="bold" textLength="43">atime</text><text x="121.5" y="95.081" fill="#D9B8FF" font-family="sans-serif" font-size="14" textLength="70">: datetime</text><text x="78.5" y="121.378" fill="#D9B8FF" font-family="sans-serif" font-size="14" font-weight="bold" textLength="43">ctime</text><text x="121.5" y="121.378" fill="#D9B8FF" font-family="sans-serif" font-size="14" textLength="70">: datetime</text><text x="78.5" y="147.675" fill="#D9B8FF" font-family="sans-serif" font-size="14" font-weight="bold" textLength="14">id</text><text x="92.5" y="147.675" fill="#D9B8FF" font-family="sans-serif" font-size="14" textLength="48">: string</text><text x="78.5" y="173.972" fill="#D9B8FF" font-family="sans-serif" font-size="14" font-weight="bold" textLength="33">kind</text><text x="111.5" y="173.972" fill="#D9B8FF" font-family="sans-serif" font-size="14" textLength="48">: string</text><text x="78.5" y="200.269" fill="#D9B8FF" font-family="sans-serif" font-size="14" font-weight="bold" textLength="90">last_access</text><text x="168.5" y="200.269" fill="#D9B8FF" font-family="sans-serif" font-size="14" textLength="66">: duration</text><text x="78.5" y="226.565" fill="#D9B8FF" font-family="sans-serif" font-size="14" font-weight="bold" textLength="90">last_update</text><text x="168.5" y="226.565" fill="#D9B8FF" font-family="sans-serif" font-size="14" textLength="66">: duration</text><text x="78.5" y="252.862" fill="#D9B8FF" font-family="sans-serif" font-size="14" font-weight="bold" textLength="48">mtime</text><text x="126.5" y="252.862" fill="#D9B8FF" font-family="sans-serif" font-size="14" textLength="70">: datetime</text><text x="78.5" y="279.159" fill="#D9B8FF" font-family="sans-serif" font-size="14" font-weight="bold" textLength="43">name</text><text x="121.5" y="279.159" fill="#D9B8FF" font-family="sans-serif" font-size="14" textLength="48">: string</text><text x="78.5" y="305.456" fill="#D9B8FF" font-family="sans-serif" font-size="14" font-weight="bold" textLength="34">tags</text><text x="112.5" y="305.456" fill="#D9B8FF" font-family="sans-serif" font-size="14" textLength="171">: dictionary[string, string]</text><path fill="none" d="M174.92 591.92c-4.65 76.22-8 196.97 7.08 300.09 2.59 17.73 6.82 36.3 11.65 54.07" style="stroke:#ffaf37;stroke-width:2"/><path fill="#FFAF37" d="m195.16 950.57 1.442-9.743-2.782 4.926-4.925-2.782 6.265 7.599z" style="stroke:#ffaf37;stroke-width:2"/><path fill="none" d="M181 338.65v99.66m-7-99.27 7-20 7 20h-14zM276.61 892.4c-5.98 17.51-12.28 35.95-18.32 53.65" style="stroke:#ffaf37;stroke-width:2"/><path fill="#FFAF37" d="m256.43 950.51 6.713-7.207-5.085 2.48-2.48-5.085.852 9.812z" style="stroke:#ffaf37;stroke-width:2"/><g fill="none"><path d="M222.74 610.7c14.49 32.79 30.68 69.42 44.96 101.74" style="stroke:#ffaf37;stroke-width:2"/><path d="m216.12 614.03-1.69-21.13 14.49 15.47-12.8 5.66z" style="stroke:#ffaf37;stroke-width:2"/></g></svg>
